X:1
T:Died For Love
M:3/4
L:1/4
K:Eb
 c| c2 B| c2 B| A/2- F3/2 G| F3-| F2 e| f2 e| d3/2 c/2 B| e f2| c3-|\
 c2 e| f2 e| d2 c/2c/2| F/2- F3/2 G| A2 G/2F/2| B- c d| e3/2 d/2 c|\
 B/2- A3/2 G| F3-| F2||
